X:1
T:Domine Deus
T:Domine Deus
T:Lupus Hellinck
T:Source : Il primo libro di madrigali a 3 voci---Venetia---A.Gardano---1559. Editor : André Vierendeels (27/10/14).
T:Notes : Original clefs : C2, C3, F3 Original note values have been halved Editorial accidentals above the staff Signed "Lupus"
C:Lupus Hellinck
%%score [ 1 2 3 ]
L:1/8
Q:1/4=90
M:2/2
K:F
V:1 treble nm="Alto" snm="A"
V:2 treble-8 nm="Tenor" snm="T"
V:3 bass nm="Bass" snm="B"
V:1
 z8 | z8 | z8 | z8 | z8 | z8 | z8 | z8 | F6 D2 | F4 G4 | F2 B2 A2 G2- | G2 FE F2 G2 | %12
w: ||||||||Do- mi-|ne De-|us, Do- mi- ne|_ _ _ _ De-|
 C2 E2 D2 C2- | CD EF G2 A2- | AG F4 E2 | F4 z4 | z2 C2 D2 F2 | E4 z4 | z8 | z8 | z8 | %21
w: us, Do- mi- ne|_ _ _ _ _ De-||us,|a- gnus De-|i,||||
 z2 C2 D2 E2 | F2 E2 C2 G2- |"^-natural" GF ED E2 F2 | D2 E4 DC | D4 z2 C2 | D2 E2 F2 ED | %27
w: a- gnus De-|* * i, a-|* * * * gnus De-||i, a-|gnus De- * * *|
 C2 G3 F ED | E2 F4 D2 | E4 C2 F2- | FE ED/E/ F4- | F4 z2 C2 | A,2 B,2 C3 B, | A,2 G,2 G4 | %34
w: i, a- * * *|* * gnus|De- * *|* * * * * i|_ fi-|li- us pa- *|* tris, fi-|
 E2 F2 G3 F | ED F3 E ED/C/ | D4 z2 C2- | C2 A,2 B,2 C2- | CB, A,G, F,2 F2 | D2 E2 F2 C2 | %40
w: li- us pa- *||tris, fi-|* li- us pa-|* * * * tris, fi-|li- us pa- *|
 A,2 B,2 C4 | A,2 D3 C F2- | F2 E2 F4- | F8 |] %44
w: ||* * tris.|_|
V:2
 c6 A2 | c4 d4 | c2 f2 e2 d2- | dc dB c2 d2 | GA Bc d2 _e2- |"^-natural" ed c4 B2 | c4 z2 c2 | %7
w: Do- mi-|ne De-|us, Do- mi- ne|_ _ _ _ _ De-|||us, Do-|
 F2 A2 G4 | F2 c2 d2 f2- | fe dc B2 d2- | de fd e4 | d4 z2 G2 | AB cA B2 A2- | AB c3 B AG | %14
w: mi- ne De-|us a- gnus De-|||i, a-|gnus _ _ _ _ De-||
 A2 B2 G2 A2- | A2 GF G4 | F4 z4 | z2 c2 d2 e2 | f2 e2 c4 | z2 f4 e2 | c2 d4 cB | A4 G4 | %22
w: ||i,|a- gnus De-|* * i,|a- gnus|De- * * *|* i|
 z2 G2 A2 B2 | c3 B AG c2- | c2 B2 c4 | F2 G2 A4 | G4 z4 | z8 | z8 | z2 c4 A2 | B2 c3 B AG | %31
w: fi- li- us|pa- * * * *|||tris,|||fi- li-|us pa- * * *|
 F2 A2 G4 | z2 g4 e2 | f2 g3 f ed | c4 d2 e2 | c3 B/c/ d2 c2- |"^-natural" c2 B2 c4 | z8 | %38
w: * * tris,|fi- li-|us pa- * * *|||* * tris,||
 z2 c4 A2 | B2 c3 B AG | F4 G2 A2 | F2 B3 A GF | G4 F4- | F8 |] %44
w: fi- li-|us pa- * * *|||* tris.|_|
V:3
 z8 | F,6 D,2 | F,4 G,4 | F,2 B,2 A,2 G,2- | G,F, G,E, F,2 G,2 |"^b" C,2 E,2 D,4 | %6
w: |Do- mi-|ne De-|us, Do- mi- ne|_ _ _ _ _ De-||
"^-natural" C,D, E,F, G,2 A,2- | A,G, F,4 E,2 | F,4 z4 | B,6 G,2 | B,4 C4 | B,8 | z4 z2 F,2- | %13
w: ||us,|Do- mi-|ne De-|us,|Do-|
 F,2 E,D, E,2 F,2 | D,4 z2 C,2 | D,2 F,4 E,2 | F,4 z2 F,2 | G,2 A,2 B,2 A,2 | F,2 C3 B, A,G, | %19
w: * mi- * ne De-|us, a-|gnus De- *|i, a-|gnus De- * *|i, a- * * *|
 A,2 B,2 G,2 A,2- | A,2 G,F, G,2 G,2 | F,4 z2 C,2 | D,2 E,2 F,2 _E,2 | C,2 C3 B, A,G, | %24
w: gnus De- i, a-|* * * gnus De-|i, a-|gnus De- * *|i, a- * * *|
 F,2 G,2 C,2 C2- | C2 B,2 C4 | z2 C,2 D,2 E,2 | F,2 E,D, C,2 C2- | CB, A,G, A,2 B,2 | G,2 A,4 F,2 | %30
w: * * gnus De-|* * i,|a- gnus De-|* * * i, a-|* * * * gnus De-|i fi- li-|
 G,2 A,3 G, F,E, | D,C, F,4 E,2 | F,2 G,2 C,4 | z4 z2 C2- | C2 A,2 B,2 C2- | CB, A,G, F,2 A,2 | %36
w: us pa- * * *||* * tris,|fi-|* li- us pa-||
 G,4 z4 | F,4 D,2 E,2 | F,4 z4 | z4 F,4- | F,2 D,2 E,2 F,2- | F,E, D,C, B,,2 D,2 | C,4 F,4- | %43
w: tris,,|fi- li- *|us,|fi-|* li- us pa-||* tris.|
 F,8 |] %44
w: _|

